X:1
T:Concerning Hobbits - Full Version
C:Howard Shore
Z:Merecraft of Larelin
Q:1/4=118
M:4/4
L:1/8
K:G
d/e/(f f)(a a) f3/2 e/ f/e/ |d4 z f2 a |b3 c' c'3 a |f3 g/f/ e3 d/e/ |f2 a2 f/(e/e) d3/2e/ |d4 z f2 a |b4 (a2 f2 |f4 e4) |d/e/(d d6) |d/e/f z2 z f z f |a/4 a/ e d e z4 z/4 |A/B/c z c2 d z B |F3 A E2 A2 |
^c2 Ac d/e/f z f |z2 z a f/4g/4 f/ e z d |
e ^c2 c/4d/4c/ |
B(f f) z2 z/ f/ b/ c'/ z |c'3 c'4 a |f3 g/f/ e3 d/e/ |f6 ff/g/ |a4 e4 |d/e/f z2 z f z f |e/f/^g z g z g z g |f/^g/ ^a3 =a a2 a/a/ |^a8 |DA, FA, FA DA |CA, EA, EA EA |DB, FB, FF DF |B,G, DG, CA, EC |DA, FA, FA DA |
CA, EA, EA EA |DB, FB, FF DF |B,G, DG, CA, EC |d z f z df z2 |b z z2 z F Bc |d z A z d z A z |e z z2 e/f/(g g2) |d/e/(f f2) (a2 a)f/a/ |b6 z/ f/b/c'/ |c'3 c'4 a |f3 g/f/ e3 f/e/ |d z d z z4 |d/e/f z2 z f z f |
a/4b/4a/e de z4 |A/B/c z c2 d z B |F3 A E3 F |D z D z z2 fa |c' z EG, EA EA |DB, FB, FF DF |B,G, B,G, CA, EC |d/e/f fa a f3/2 e/ f/e/ |d4 z f2 a |b3 c' c'3 a |f3 g/f/ e3 d/e/ |f2 a2 f/(e/e) d3/2e/ |d4 z g2 a |
b4 (a2 f2 |f4 e4) |d/e/d z6 |]
%End of file
